azure-patterns/svg-up-right-arrow.svg

<svg xmlns="http://www.w3.org/2000/svg" viewBox="0 0 49 49">
                                
                            
<path d="M46.6741 2.3335V46.6661L26.1375 26.1295L22.8781 22.8701L2.33374 2.3335H46.6741Z" fill="#0078D4"></path>
<path d="M22.8726 22.8725L14.1982 31.5469L17.4546 34.8032L26.1289 26.1288L22.8726 22.8725Z" fill="#0078D4"></path>
<path d="M21.0032 7.00098V11.6684H34.0797L22.8779 22.8702L26.1373 26.1296L37.3391 14.9278V28.0043H42.0065V7.00098H21.0032Z" fill="#50E6FF"></path>
<path d="M11.1371 34.2572L7.74878 37.6455L11.3626 41.2594L14.751 37.871L11.1371 34.2572Z" fill="#0078D4"></path>
</svg>

<svg xmlns="http://www.w3.org/2000/svg" viewBox="0 0 49 49"><path d="M46.674 2.333v44.333L26.137 26.13l-3.259-3.26L2.334 2.333h44.34zM22.873 22.872l-8.675 8.675 3.257 3.256 8.674-8.674-3.256-3.257z" fill="#0078D4"/><path d="M21.003 7.001v4.667H34.08L22.878 22.87l3.26 3.26 11.201-11.202v13.076h4.668V7.001H21.003z" fill="#50E6FF"/><path d="M11.137 34.257L7.75 37.646l3.614 3.613 3.388-3.388-3.614-3.614z" fill="#0078D4"/></svg>
